public/icon/24/home.svg

<svg width="24" height="24" viewBox="0 0 24 24" fill="none" xmlns="http://www.w3.org/2000/svg">
<path d="M2 12L12 3L22 12" stroke="#092E24" stroke-width="2" stroke-miterlimit="10" stroke-linecap="square" stroke-linejoin="round"/>
<path d="M15 13H9V21H15V13Z" fill="white"/>
<path d="M4 11V21H9.33333V13.0696H14.6667V21H20V11" stroke="#092E24" stroke-width="2" stroke-miterlimit="10" stroke-linecap="square" stroke-linejoin="round"/>
<path d="M10 20L14 20" stroke="#092E24" stroke-width="2" stroke-miterlimit="10" stroke-linecap="round" stroke-linejoin="round"/>
</svg>

<svg width="24" height="24" viewBox="0 0 24 24">
  <g class="home">
    <path d="m12 3-8 7v11h5v-8h6v8h5V10l-8-7Z" class="fill-white"/>
    <path d="m2 12 10-9 10 9" class="stroke-current stroke-2 sl-s"/>
    <path d="M15 13H9v8h6v-8Z" class="stroke-current stroke-2 sl-r"/>
    <path d="M4 11v10h5.333v-7.93h5.334V21H20V11" class="stroke-current stroke-2 sl-r"/>
    <path d="M10 20h4" class="stroke-current stroke-2 sl-s"/>
  </g>
</svg>
